X:350
T: DUNKEL IST SCHON JEDES FENSTER
N: B0412
O: Europa, Mitteleuropa, Deutschland, Sachsen; Brandenburg; Niederrhein
R: Nachtwaechter - Lied, Staendchen
M: 4/4
L: 1/8
K: D
 | FGFGA2A2 | BABcd2A2 |
A2G2G2F2 | E2z6 |
c3ed2A2 | c3ed2A2 |
d3BAFGE | D2z6

@@@ Tune index: 2153
